X:2439
T:Halting march, The
O:england
R:march
M:2/4
L:1/8
K:Ador
A2 B/c/d|ee2d|e>d ef|ec A2|
G2 A/B/c|dd2e|dB GB|d2 cB|
A2 B/c/d|ee2d|e>d ef|ec A2|
ag2e|dc2B|A>B AG|1 A3G:|2 A3e||
aa2g|ed2e|g>a ge|dB G2|
aa2g|ed2e|g>a ge|g2 a/g/e/g/|
aa2g|ed2e|g>a ge|dB G2|
A>B cd|e>d cB|A>B cd|e2 e2|
aa2g|ed2e|g>a ge|dB G2|
A>B cd|e>d cB|A>B AG|A3G||


